X:1
T:Glück zu dem Helikon - Schütz
T:James Gibb editions
T:#
%%score [ 1 2 ] 3
L:1/8
Q:1/4=120
M:3/4
K:F
V:1 treble nm="A" snm="A"
V:2 treble-8 nm="T" snm="T"
V:3 bass nm="Midi_74"
V:1
"^Glück zu dem Helikon""^Heinrich Schütz\n(1585-1672)" G2 F2 D2 | E4 ^F2 | G4 z2 | z6 | z4 G2 | %5
w: Glück zu dem|He- li-|kon,||Ich|
w: Ich hör süs-|sen Ge-|sang||Wie|
w: All- hier der|Orph- eus|hoch||Sein|
w: Ein neu- en|Klang zu-|vor,||Der|
w: Sie lie- fen|all ohn|Ruh,||Die|
w: Per- mess- us|lobt die|Sach,||Glück|
w: Der Mi- das|nicht hie|gilt,||Den|
 F4 B,2 | _E4 E2 | D4 z2 |[M:3/4] F2 F2 F2 | E4 C2 | D4 z2 | z4 C2 | (F4 C2 | D4) C2 | %14
w: hör der|Mu- sen|Ton,|Cli- o, Eu-|ter- pe|rein|Mel-|po\- *|* me-|
w: der Si-|ren- en|Klang,|Doch wie ich|recht ver-|nahm,|Von|Phoe\- *|* bo|
w: Har- fen|stim- met|noch,|Be- wegt Wäl-|der unt|Thal,|Er-|füllt *|* des|
w: nicht in|ih- rem|Chor,|Ein Jün- ger|fing mit|an,|Spielt|auch *|* auf|
w: Mu- sen|gos- sen|zu,|Dass er nass|von dem|Wein,|Ein|Bach *|* lief|
w: zu der|Neu- en-|bach,|Den Pe- ga-|sus ge-|macht,|Der|Brunn *|* auch|
w: Phoe- bus|ta- pfer|schilt,|Al- lein der|Mu- sen|Zahl|Singt|in *|* der|
[M:3/2] B,4 A,8 | G,12 |] %16
w: ne stimmt|ein.|
w: alls her-|kam.|
w: Jo- vis|Saal.|
w: die- sem|Plan.|
w: von ihm|rein.|
w: heim- lich|lacht.|
w: Göt- ter|Saal.|
V:2
 z6 | z6 | d2 B2 G2 | B4 c2 | d4 z2 | z4 d2 | c4 G2 | B4 B2 |[M:3/4][K:treble-8] A4 z2 | c2 c2 c2 | %10
w: ||Glück zu dem|He- li-|kon,|Ich|hör der|Mu- sen|Ton,|Cli- o, Eu-|
w: ||Ich hör süs-|sen Ge-|sang|Wie|der Si-|ren- en|Klang.|Doch wie ich|
w: ||All- hier der|Orph- eus|hoch|Sein|Har- fen|stim- met|noch,|Be- wegt Wäl-|
w: ||Ein neu- en|Klang zu-|vor,|Der|nicht in|ih- rem|Chor,|Ein Jün- ger|
w: ||Sie lie- fen|all ohn|Ruh,|Die|Mu- sen|gos- sen|zu,|Dass er nass|
w: ||Per- mess- us|lobt die|Sach,|Glück|zu der|Neu- en-|bach,|Den Pe- ga-|
w: ||Der Mi- das|nicht hie|gilt,|Den|Phoe- bus|ta- pfer|schilt,|Al- lein der|
 B4 G2 | A4 z2 | z4 F2 | B4 A2 |[M:3/2] G4 ^F8 | G12 |] %16
w: ter- pe|rein|Mel-|po- me-|ne stimmt|ein.|
w: recht ver-|nahm,|Von|Phoe- bo|alls her-|kam.|
w: der unt|Thal,|Er-|füllt des|Jo- vis|Saal.|
w: fing mit|an,|Spielt|auch auf|die- sem|Plan.|
w: von dem|Wein,|Ein|Bach lief|von ihm|rein.|
w: sus ge-|macht,|Der|Brunn auch|heim- lich|lacht.|
w: Mu- sen|Zahl|Singt|in der|Göt- ter|Saal.|
V:3
 G,,2 B,,2 B,,2 | C,3 B,, A,,2 | G,,4 G,,2 | G,3 F, _E,2 | B,2 B,,2 _E,2 | D,4 G,2 | C,3 D, _E,F, | %7
 G,4 G,,2 |[M:3/4] D,3 E, F,G, | A,4 A,2 | G,3 F, _E,2 | D,3 E, F,2 | B,,4 A,,2 | G,,4 A,,2 | %14
[M:3/2] B,,4 D,8 | G,,12 |] %16

